X:143
T:O'Connors
R:Polka
O:Ireland
M:2/4
L:1/8
K:G
D>E GB|D>E GB|AE ED/E/|GE EG|\
D>E GB|D>E GB|AE FG|AG G2:|*
|:B/|\
dB BA/B/|dB B>A|GE ED/E/|GE E>B|\
dB BA/B/|dB B>A|GE FG|AG G2:|
